src/assets/filled/BagCross1.svg

<svg width="24" height="24" viewBox="0 0 24 24"  xmlns="http://www.w3.org/2000/svg">
<path d="M19.24 5.57957H18.84L15.46 2.19957C15.19 1.92957 14.75 1.92957 14.47 2.19957C14.2 2.46957 14.2 2.90957 14.47 3.18957L16.86 5.57957H7.14L9.53 3.18957C9.8 2.91957 9.8 2.47957 9.53 2.19957C9.26 1.92957 8.82 1.92957 8.54 2.19957L5.17 5.57957H4.77C3.87 5.57957 2 5.57957 2 8.13957C2 9.10957 2.2 9.74957 2.62 10.1696C2.86 10.4196 3.15 10.5496 3.46 10.6196C3.75 10.6896 4.06 10.6996 4.36 10.6996H19.64C19.95 10.6996 20.24 10.6796 20.52 10.6196C21.36 10.4196 22 9.81957 22 8.13957C22 5.57957 20.13 5.57957 19.24 5.57957Z" />
<path d="M19.09 12H4.90995C4.28995 12 3.81995 12.55 3.91995 13.16L4.75995 18.3C5.03995 20.02 5.78995 22 9.11995 22H14.7299C18.0999 22 18.7 20.31 19.0599 18.42L20.07 13.19C20.19 12.57 19.72 12 19.09 12ZM13.92 18.89C13.78 19.04 13.59 19.11 13.39 19.11C13.2 19.11 13.0099 19.04 12.86 18.89L12.02 18.04L11.14 18.92C10.99 19.07 10.7999 19.14 10.6099 19.14C10.4099 19.14 10.2199 19.07 10.0799 18.92C9.77995 18.63 9.77995 18.16 10.0799 17.86L10.9599 16.98L10.1099 16.14C9.80995 15.84 9.80995 15.37 10.1099 15.08C10.3999 14.78 10.8699 14.78 11.17 15.08L12.02 15.92L12.83 15.11C13.13 14.81 13.6 14.81 13.89 15.11C14.19 15.4 14.19 15.87 13.89 16.17L13.08 16.98L13.92 17.83C14.22 18.13 14.22 18.6 13.92 18.89Z" />
</svg>

<?xml version="1.0" encoding="UTF-8"?>
<svg width="24" height="24" viewBox="0 0 24 24" xmlns="http://www.w3.org/2000/svg">
 <path d="m19.24 5.5796h-0.4l-3.38-3.38c-0.27-0.27-0.71-0.27-0.99 0-0.27 0.27-0.27 0.71 0 0.99l2.39 2.39h-9.72l2.39-2.39c0.27-0.27 0.27-0.71 0-0.99-0.27-0.27-0.71-0.27-0.99 0l-3.37 3.38h-0.4c-0.9 0-2.77 0-2.77 2.56 0 0.97 0.2 1.61 0.62 2.03 0.24 0.25 0.53 0.38 0.84 0.45 0.29 0.07 0.6 0.08 0.9 0.08h15.28c0.31 0 0.6-0.02 0.88-0.08 0.84-0.2 1.48-0.80003 1.48-2.48 0-2.56-1.87-2.56-2.76-2.56z"/>
 <path d="m19.09 12h-14.18c-0.62 0-1.09 0.55-0.99 1.16l0.84 5.14c0.28 1.72 1.03 3.7 4.36 3.7h5.61c3.37 0 3.9701-1.69 4.33-3.58l1.0101-5.23c0.12-0.62-0.35-1.19-0.98-1.19zm-5.17 6.89c-0.14 0.15-0.33 0.22-0.53 0.22-0.19 0-0.3801-0.07-0.53-0.22l-0.84-0.85-0.88 0.88c-0.15 0.15-0.3401 0.22-0.5301 0.22-0.2 0-0.39-0.07-0.53-0.22-0.29995-0.29-0.29995-0.76 0-1.06l0.88-0.88-0.85-0.84c-0.29995-0.3-0.29995-0.77 0-1.06 0.29-0.3 0.76-0.3 1.0601 0l0.85 0.84 0.81-0.81c0.3-0.3 0.77-0.3 1.06 0 0.3 0.29 0.3 0.76 0 1.06l-0.81 0.81 0.84 0.85c0.3 0.3 0.3 0.77 0 1.06z"/>
</svg>
